X:1
T:Title
%%score [ 1 2 3 4 ]
L:1/8
Q:1/4=352
M:2/1
K:F
V:1 treble nm="MusicXML Part"
V:2 treble nm="MusicXML Part"
V:3 treble-8 nm="MusicXML Part"
V:4 bass nm="MusicXML Part"
V:1
 c8 c4 c4 | c8 c4 c4 | d16 | B8 z4 d2 d2 | c4 c4 d4 c4 | c4 B4 c8 | A8 c6 c2 | c4 B4 A4 G4 | %8
w: 1.A veyn- tey|sie- te de|mar-|ço de la|me- dia no- che|se- * rì-|a en Bar-|çe- lo- na la|
w: ||||||||
w: ||||||||
w: ||||||||
w: ||||||||
w: ||||||||
w: ||||||||
w: 2.Los gri- tos|lle- gan al|cie-|lo la gen-|te se a- mor-|te- * cì-|a por Don|Man- rri- que de|
w: 3.Muer- to lo|traen a su|tier-|ra don- de|bi- vo su- ce-|dì- * *|a; su bul-|to lle- va cu-|
w: 4.cer- ca- do|d'es- cu- dos|d'ar-|mas de re-|al ge- na- lo-|gi- * *|a, dea- quel-|los al- tos li-|
w: 5.de los Man-|rì- quez y|Ca-|stros el me-|jor e- ra quea-|vì- * *|a, de los|In- fan- tes de|
 A8 F8 | A6 B2 c8 | c4 A4 d4 c4 | d8 c4 c2 c2 | c6 c2 c4 B4 | A4 G4 A8 | F8 z4 c2 c2 | %15
w: gran- de|gran- de llan-|to se * ha-|zi- a, gran- de|llan- to se ha-|zi- * *|a, gran- de|
w: |||||||
w: |||||||
w: |||||||
w: |||||||
w: |||||||
w: |||||||
w: La- ra|que de- ste|mun- do * par-|tì- a, que de-|ste mun- do par-|ti- * *|a, que de-|
w: bier- to|de muy ri-|ca pe- * dre-|rì- a, de muy|ri- ca pe- dre-|rì- * *|a, de muy|
w: na- ges|don- dea- quel|se- ñor * ve-|nì- a, don- dea-|quel se- ñor ve-|nì- * *|a, don- dea-|
w: La- ra|de- re- cha-|men- te * ve-|nì- a, de- re-|cha- men- te ve-|nì- * *|a, de- re-|
 c6 c2 c4 B4 | A4 G4 A8 | F16 |]"^Vers 6 - 11" c8 c4 c4 | c8 c4 c4 | d16 | B8 z4 d2 d2 | %22
w: llan- to se ha-|zi- * *|a.|||||
w: |||6.Con èl sa-|len ar- ço-|bis-|pos con to-|
w: |||7.llo- ra- loel|rey ya la|rey-|na co- moa-|
w: |||8.Que- da- ron|to- das las|da-|mas sin con-|
w: |||9."El me- jor|de los me-|jo-|res oy nos|
w: |||10.pa- re- cì-|aa du- quesu|pa-|dre en to-|
w: |||11.queaun- que la|vi- da mu-|rie-|se su me-|
w: ste mun- do par-|tì- * *|a.|||||
w: ri- ca pe- dre-|rì- * *|a,|||||
w: quel se- ñor ve-|nì- * *|a,|||||
w: cha- men- te ve-|nì- * *|a.|||||
 c4 c4 d4 c4 | c4 B4 c8 | A8 c6 c2 | c4 B4 A4 G4 | A8 F8 | A6 B2 c8 | c4 A4 d4 c4 | d8 c4 c2 c2 | %30
w: ||||||||
w: dos la cle- re-|zi- * *|a. Ca- va-|lle- ros traen sus|an- das,|du- ques son|su * com- pa-|ñì- a, du- ques|
w: quel que les do-|lì- * *|a, llo- ra|to- * da la|cor- te,|ca- da qual|quien * mas po-|dì- a, ca- da|
w: sue- lo nìa- le-|grì- * *|a; ca- dau-|no de los ga-|la- nes|con sus là-|gri- * mas de-|zì- a, con sus|
w: de- xaen es- te|dì- * *|a"; hi- zo|hon- raa los me-|no- res,|a los gran-|des * de- ma-|sì- a, a los|
w: do ca- va- lle-|rì- * *|a: sò- loun|con- sue- lo le|que- da|a el que|màs * le que-|rì- a, a el|
w: mo- ria que- da-|rì- * *|a. Pa- re-|ciò- me Bar- ce-|lo- na|a Tro- ya|quan- * do sear-|dì- a, a Tro-|
w: ||||||||
w: ||||||||
w: ||||||||
w: ||||||||
 c6 c2 c4 B4 | A4 G4 A8 | F8 z4 c2 c2 | c6 c2 c4 B4 | A4 G4 A8 | F16 |] %36
w: ||||||
w: son su com- pa-|ñì- * *|a, du- ques|son su com- pa-|ñì- * *|a,|
w: qual quien màs po-|dì- * *|a, ca- da|qual quien màs po-|dì- * *|a.|
w: là- gri- mas de-|zì- * *|a, con sus|là- gri- mas de-|zì- * *|a:|
w: gran- des de- ma-|sì- * *|a, a los|gran- des de- ma-|sì- * *|a,|
w: que màs le que-|rì- * *|a, a el|que màs le que-|rì- * *|a,|
w: ya quan- do sear-|dì- * *|a, a Tro-|ya quan- do sear-|dì- * *|a.|
w: ||||||
w: ||||||
w: ||||||
w: ||||||
V:2
 A8 A4 A4 | A8 A4 A4 | B8 A8 | G8 z4 A2 A2 | A6 A2 A4 A4 | G4 F4 G8 | F8 A6 A2 | G6 F2 E4 D4 | %8
w: 1.A veyn- tey|sie- te de|mar- *|ço de la|me- dia no- che|se- * rì-|a en Bar-|çe- lo- na la|
w: ||||||||
w: ||||||||
w: ||||||||
w: ||||||||
w: ||||||||
w: ||||||||
w: 2.Los gri- tos|lle- gan al|cie- *|lo la gen-|te se a- mor-|te- * cì-|a por Don|Man- rri- que de|
w: 3.Muer- to lo|traen a su|tier- *|ra don- de|bi- vo su- ce-|dì- * *|a; su bul-|to lle- va cu-|
w: 4.cer- ca- do|d'es- cu- dos|d'ar- *|mas de re-|al ge- na- lo-|gi- * *|a, dea- quel-|los al- tos li-|
w: 5.de los Man-|rì- quez y|Ca- *|stros el me-|jor e- ra quea-|vì- * *|a, de los|In- fan- tes de|
 E8 D8 | F6 F2 G6 G2 | A4 c4 B4 A4- | A4 G4 A4 A2 A2 | A6 A2 G6 F2 | E4 D4 E8 | D8 z4 A2 A2 | %15
w: gran- de|gran- de llan- *|to se * ha-|* zi- a, gran- de|llan- to se ha-|zi- * *|a, gran- de|
w: |||||||
w: |||||||
w: |||||||
w: |||||||
w: |||||||
w: |||||||
w: La- ra|que de- ste *|mun- do * par-|* tì- a, que de-|ste mun- do par-|ti- * *|a, que de-|
w: bier- to|de muy ri- *|ca pe- * dre-|* rì- a, de muy|ri- ca pe- dre-|rì- * *|a, de muy|
w: na- ges|don- dea- quel *|se- ñor * ve-|* nì- a, don- dea-|quel se- ñor ve-|nì- * *|a, don- dea-|
w: La- ra|de- re- cha- *|men- te * ve-|nì- * a, de- re-|cha- men- te ve-|nì- * *|a, de- re-|
 A6 A2 G6 F2 | E4 D4 E8 | D16 |] A8 A4 A4 | A8 A4 A4 | B8 A8 | G8 z4 A2 A2 | A6 A2 A4 A4 | %23
w: llan- to se ha-|zi- * *|a.||||||
w: |||6.Con èl sa-|len ar- ço-|bis- *|pos con to-|dos la cle- re-|
w: |||7.llo- ra- loel|rey ya la|rey- *|na co- moa-|quel que les do-|
w: |||8.Que- da- ron|to- das las|da- *|mas sin con-|sue- lo nìa- le-|
w: |||9."El me- jor|de los me-|jo- *|res oy nos|de- xaen es- te|
w: |||10.pa- re- cì-|aa du- quesu|pa- *|dre en to-|do ca- va- lle-|
w: |||11.queaun- que la|vi- da mu-|rie- *|se su me-|mo- ria que- da-|
w: ste mun- do par-|tì- * *|a.||||||
w: ri- ca pe- dre-|rì- * *|a,||||||
w: quel se- ñor ve-|nì- * *|a,||||||
w: cha- men- te ve-|nì- * *|a.||||||
 G4 F4 G8 | F8 A6 A2 | G6 F2 E4 D4 | E8 D8 | F6 F2 G6 G2 | A4 c4 B4 A4- | A4 G4 A4 A2 A2 | %30
w: |||||||
w: zi- * *|a. Ca- va-|lle- ros traen sus|an- das,|du- ques son *|su * com- pa-|* ñì- a, du- ques|
w: lì- * *|a, llo- ra|to- * da la|cor- te,|ca- da qual *|quien * mas po-|* dì- a, ca- da|
w: grì- * *|a; ca- dau-|no de los ga-|la- nes|con sus là- *|gri- * mas de-|* zì- a, con sus|
w: dì- * *|a"; hi- zo|hon- raa los me-|no- res,|a los gran- *|des * de- ma-|* sì- a, a los|
w: rì- * *|a: sò- loun|con- sue- lo le|que- da|a el que *|màs * le que-|* rì- a, a el|
w: rì- * *|a. Pa- re-|ciò- me Bar- ce-|lo- na|a Tro- ya *|quan- * do sear-|* dì- a, a Tro-|
w: |||||||
w: |||||||
w: |||||||
w: |||||||
 A6 A2 G6 F2 | E4 D4 E8 | D8 z4 A2 A2 | A6 A2 G6 F2 | E4 D4 E8 | D16 |] %36
w: ||||||
w: son su com- pa-|ñì- * *|a, du- ques|son su com- pa-|ñì- * *|a,|
w: qual quien màs po-|dì- * *|a, ca- da|qual quien màs po-|dì- * *|a.|
w: là- gri- mas de-|zì- * *|a, con sus|là- gri- mas de-|zì- * *|a:|
w: gran- des de- ma-|sì- * *|a, a los|gran- des de- ma-|sì- * *|a,|
w: que màs le que-|rì- * *|a, a el|que màs le que-|rì- * *|a,|
w: ya quan- do sear-|dì- * *|a, a Tro-|ya quan- do sear-|dì- * *|a.|
w: ||||||
w: ||||||
w: ||||||
w: ||||||
V:3
 f8 f4 f4 | e8 e4 e4 | g12 f4 | g8 z4 f2 f2 | e4 e4 f4 e2 d2 | e4 f8 e4 | c8 f6 f2 | e6 d2 c4 d4 | %8
w: 1.A veyn- tey|sie- te de|mar- *|ço de la|me- dia no- che *|se- * rì-|a en Bar-|çe- lo- na la|
w: ||||||||
w: ||||||||
w: ||||||||
w: ||||||||
w: ||||||||
w: ||||||||
w: 2.Los gri- tos|lle- gan al|cie- *|lo la gen-|te se a- mor- *|te- * cì-|a por Don|Man- rri- que de|
w: 3.Muer- to lo|traen a su|tier- *|ra don- de|bi- vo su- ce- *|dì- * *|a; su bul-|to lle- va cu-|
w: 4.cer- ca- do|d'es- cu- dos|d'ar- *|mas de re-|al ge- na- lo- *|gi- * *|a, dea- quel-|los al- tos li-|
w: 5.de los Man-|rì- quez y|Ca- *|stros el me-|jor e- ra quea- *|vì- * *|a, de los|In- fan- tes de|
 d4 c4 d8 | z4 d2 d2 e6 e2 | e4 f4 d2 g2 e4 | d8 e4 f2 f2 | f6 f2 e4 d4 | c4 d8 c4 | d8 z4 f2 f2 | %15
w: gran- * de|gran- de llan- *|to se * * ha-|zi- a, gran- de|llan- to se ha-|zi- * *|a, gran- de|
w: |||||||
w: |||||||
w: |||||||
w: |||||||
w: |||||||
w: |||||||
w: La- * ra|que de- ste *|mun- do * * par-|tì- a, que de-|ste mun- do par-|ti- * *|a, que de-|
w: bier- * to|de muy ri- *|ca pe- * * dre-|rì- a, de muy|ri- ca pe- dre-|rì- * *|a, de muy|
w: na- * ges|don- dea- quel *|se- ñor * * ve-|nì- a, don- dea-|quel se- ñor ve-|nì- * *|a, don- dea-|
w: La- * ra|de- re- cha- *|men- te * * ve-|nì- a, de- re-|cha- men- te ve-|nì- * *|a, de- re-|
 f6 f2 e4 d4 | c4 d8 c4 | d16 |] f8 f4 f4 | e8 e4 e4 | g12 f4 | g8 z4 f2 f2 | e4 e4 f4 e2 d2 | %23
w: llan- to se ha-|zi- * *|a.||||||
w: |||6.Con èl sa-|len ar- ço-|bis- *|pos con to-|dos la cle- re- *|
w: |||7.llo- ra- loel|rey ya la|rey- *|na co- moa-|quel que les do- *|
w: |||8.Que- da- ron|to- das las|da- *|mas sin con-|sue- lo nìa- le- *|
w: |||9."El me- jor|de los me-|jo- *|res oy nos|de- xaen es- te *|
w: |||10.pa- re- cì-|aa du- quesu|pa- *|dre en to-|do ca- va- lle- *|
w: |||11.queaun- que la|vi- da mu-|rie- *|se su me-|mo- ria que- da- *|
w: ste mun- do par-|tì- * *|a.||||||
w: ri- ca pe- dre-|rì- * *|a,||||||
w: quel se- ñor ve-|nì- * *|a,||||||
w: cha- men- te ve-|nì- * *|a.||||||
 e4 f8 e4 | c8 f6 f2 | e6 d2 c4 d4 | d4 c4 d8 | z4 d2 d2 e6 e2 | e4 f4 d2 g2 e4 | d8 e4 f2 f2 | %30
w: |||||||
w: zi- * *|a. Ca- va-|lle- ros traen sus|an- * das,|du- ques son *|su * com- * pa-|ñì- a, du- ques|
w: lì- * *|a, llo- ra|to- * da la|cor- * te,|ca- da qual *|quien * mas * po-|dì- a, ca- da|
w: grì- * *|a; ca- dau-|no de los ga-|la- * nes|con sus là- *|gri- * mas * de-|zì- a, con sus|
w: dì- * *|a"; hi- zo|hon- raa los me-|no- * res,|a los gran- *|des * de- * ma-|sì- a, a los|
w: rì- * *|a: sò- loun|con- sue- lo le|que- * da|a el que *|màs * le * que-|rì- a, a el|
w: rì- * *|a. Pa- re-|ciò- me Bar- ce-|lo- * na|a Tro- ya *|quan- * do * sear-|dì- a, a Tro-|
w: |||||||
w: |||||||
w: |||||||
w: |||||||
 f6 f2 e4 d4 | c4 d8 c4 | d8 z4 f2 f2 | f6 f2 e4 d4 | c4 d8 c4 | d16 |] %36
w: ||||||
w: son su com- pa-|ñì- * *|a, du- ques|son su com- pa-|ñì- * *|a,|
w: qual quien màs po-|dì- * *|a, ca- da|qual quien màs po-|dì- * *|a.|
w: là- gri- mas de-|zì- * *|a, con sus|là- gri- mas de-|zì- * *|a:|
w: gran- des de- ma-|sì- * *|a, a los|gran- des de- ma-|sì- * *|a,|
w: que màs le que-|rì- * *|a, a el|que màs le que-|rì- * *|a,|
w: ya quan- do sear-|dì- * *|a, a Tro-|ya quan- do sear-|dì- * *|a.|
w: ||||||
w: ||||||
w: ||||||
w: ||||||
V:4
 F,8 F,4 F,4 | A,8 A,4 A,4 | G,2 A,2 B,2 C2 D8 | G,8 z4 D2 D2 | A,4 A,4 D4 A,2 B,2 | C4 D4 C8 | %6
w: 1.A veyn- tey|sie- te de|mar- * * * *|ço de la|me- dia no- che *|se- * rì-|
w: ||||||
w: ||||||
w: ||||||
w: ||||||
w: ||||||
w: ||||||
w: 2.Los gri- tos|lle- gan al|cie- * * * *|lo la gen-|te se a- mor- *|te- * cì-|
w: 3.Muer- to lo|traen a su|tier- * * * *|ra don- de|bi- vo su- ce- *|dì- * *|
w: 4.cer- ca- do|d'es- cu- dos|d'ar- * * * *|mas de re-|al ge- na- lo- *|gi- * *|
w: 5.de los Man-|rì- quez y|Ca- * * * *|stros el me-|jor e- ra quea- *|vì- * *|
 F,8 F,6 F,2 | C4 G,4 A,4 B,4 | A,8 D,8 | D6 D2 C6 B,2 | A,4 F,4 G,4 A,4 | B,8 A,4 F,2 F,2 | %12
w: a en Bar-|çe- lo- na la|gran- de|gran- de llan- *|to se * ha-|zi- a, gran- de|
w: ||||||
w: ||||||
w: ||||||
w: ||||||
w: ||||||
w: ||||||
w: a por Don|Man- rri- que de|La- ra|que de- ste *|mun- do * par-|tì- a, que de-|
w: a; su bul-|to lle- va cu-|bier- to|de muy ri- *|ca pe- * dre-|rì- a, de muy|
w: a, dea- quel-|los al- tos li-|na- ges|don- dea- quel *|se- ñor * ve-|nì- a, don- dea-|
w: a, de los|In- fan- tes de|La- ra|de- re- cha- *|men- te * ve-|nì- a, de- re-|
 F,6 F,2 C4 G,4 | A,4 B,4 A,8 | D,8 z4 F,2 F,2 | F,6 F,2 C4 G,4 | A,4 B,4 A,8 | D,16 |] %18
w: llan- to se ha-|zi- * *|a, gran- de|llan- to se ha-|zi- * *|a.|
w: ||||||
w: ||||||
w: ||||||
w: ||||||
w: ||||||
w: ||||||
w: ste mun- do par-|ti- * *|a, que de-|ste mun- do par-|tì- * *|a.|
w: ri- ca pe- dre-|rì- * *|a, de muy|ri- ca pe- dre-|rì- * *|a,|
w: quel se- ñor ve-|nì- * *|a, don- dea-|quel se- ñor ve-|nì- * *|a,|
w: cha- men- te ve-|nì- * *|a, de- re-|cha- men- te ve-|nì- * *|a.|
 F,8 F,4 F,4 | A,8 A,4 A,4 | G,2 A,2 B,2 C2 D8 | G,8 z4 D2 D2 | A,4 A,4 D4 A,2 B,2 | C4 D4 C8 | %24
w: ||||||
w: 6.Con èl sa-|len ar- ço-|bis- * * * *|pos con to-|dos la cle- re- *|zi- * *|
w: 7.llo- ra- loel|rey ya la|rey- * * * *|na co- moa-|quel que les do- *|lì- * *|
w: 8.Que- da- ron|to- das las|da- * * * *|mas sin con-|sue- lo nìa- le- *|grì- * *|
w: 9."El me- jor|de los me-|jo- * * * *|res oy nos|de- xaen es- te *|dì- * *|
w: 10.pa- re- cì-|aa du- quesu|pa- * * * *|dre en to-|do ca- va- lle- *|rì- * *|
w: 11.queaun- que la|vi- da mu-|rie- * * * *|se su me-|mo- ria que- da- *|rì- * *|
w: ||||||
w: ||||||
w: ||||||
w: ||||||
 F,8 F,6 F,2 | C4 G,4 A,4 B,4 | A,8 D,8 | D6 D2 C6 B,2 | A,4 F,4 G,4 A,4 | B,8 A,4 F,2 F,2 | %30
w: ||||||
w: a. Ca- va-|lle- ros traen sus|an- das,|du- ques son *|su * com- pa-|ñì- a, du- ques|
w: a, llo- ra|to- * da la|cor- te,|ca- da qual *|quien * mas po-|dì- a, ca- da|
w: a; ca- dau-|no de los ga-|la- nes|con sus là- *|gri- * mas de-|zì- a, con sus|
w: a"; hi- zo|hon- raa los me-|no- res,|a los gran- *|des * de- ma-|sì- a, a los|
w: a: sò- loun|con- sue- lo le|que- da|a el que *|màs * le que-|rì- a, a el|
w: a. Pa- re-|ciò- me Bar- ce-|lo- na|a Tro- ya *|quan- * do sear-|dì- a, a Tro-|
w: ||||||
w: ||||||
w: ||||||
w: ||||||
 F,6 F,2 C4 G,4 | A,4 B,4 A,8 | D,8 z4 F,2 F,2 | F,6 F,2 C4 G,4 | A,4 B,4 A,8 | D,16 |] %36
w: ||||||
w: son su com- pa-|ñì- * *|a, du- ques|son su com- pa-|ñì- * *|a,|
w: qual quien màs po-|dì- * *|a, ca- da|qual quien màs po-|dì- * *|a.|
w: là- gri- mas de-|zì- * *|a, con sus|là- gri- mas de-|zì- * *|a:|
w: gran- des de- ma-|sì- * *|a, a los|gran- des de- ma-|sì- * *|a,|
w: que màs le que-|rì- * *|a, a el|que màs le que-|rì- * *|a,|
w: ya quan- do sear-|dì- * *|a, a Tro-|ya quan- do sear-|dì- * *|a.|
w: ||||||
w: ||||||
w: ||||||
w: ||||||

